modules/themify-icons/icons/folder.svg

<?xml version="1.0" encoding="utf-8"?>
<!-- Generated by IcoMoon.io -->
<!DOCTYPE svg PUBLIC "-//W3C//DTD SVG 1.1//EN" "http://www.w3.org/Graphics/SVG/1.1/DTD/svg11.dtd">
<svg version="1.1" xmlns="http://www.w3.org/2000/svg" xmlns:xlink="http://www.w3.org/1999/xlink" width="17" height="17" viewBox="0 0 17 17">
<g>
</g>
	<path d="M8 4l-1.958-2h-6.042v15h17v-13h-9zM5.622 3l1.958 2h8.42v2.027l-15-0.026v-4.001h4.622zM1 16v-7.999l15 0.026v7.973h-15z" fill="#000000" />
</svg>

<svg xmlns="http://www.w3.org/2000/svg" width="17" height="17"><path d="M8 4L6.042 2H0v15h17V4H8zM5.622 3L7.58 5H16v2.027L1 7.001V3h4.622zM1 16V8.001l15 .026V16H1z"/></svg>
